resources/images/icons/warning.svg

<svg fill="none" height="24" viewBox="0 0 24 24" width="24" xmlns="http://www.w3.org/2000/svg"><g fill="#0d0d0d"><path d="m12 14c-.5523 0-1-.4477-1-1v-3c0-.55228.4477-1 1-1s1 .44772 1 1v3c0 .5523-.4477 1-1 1z" xmlns="http://www.w3.org/2000/svg"/><path d="m10.5 16.5c0-.8284.6716-1.5 1.5-1.5s1.5.6716 1.5 1.5-.6716 1.5-1.5 1.5-1.5-.6716-1.5-1.5z" xmlns="http://www.w3.org/2000/svg"/><path d="m10.2301 3.2156c.7499-1.42467 2.7899-1.42468 3.5397 0l8.3437 15.8529c.7009 1.3318-.2649 2.9315-1.7699 2.9315h-16.68725c-1.50502 0-2.47079-1.5997-1.76984-2.9315zm10.1135 16.7844-8.3436-15.8529-8.34365 15.8529z" xmlns="http://www.w3.org/2000/svg"/></g></svg>

<svg fill="none" viewBox="0 0 24 24" height="24" width="24" xmlns="http://www.w3.org/2000/svg">
<path xmlns="http://www.w3.org/2000/svg" d="M12 14C11.4477 14 11 13.5523 11 13V10C11 9.44772 11.4477 9 12 9C12.5523 9 13 9.44772 13 10V13C13 13.5523 12.5523 14 12 14Z" fill="#0D0D0D"></path>
<path xmlns="http://www.w3.org/2000/svg" d="M10.5 16.5C10.5 15.6716 11.1716 15 12 15C12.8284 15 13.5 15.6716 13.5 16.5C13.5 17.3284 12.8284 18 12 18C11.1716 18 10.5 17.3284 10.5 16.5Z" fill="#0D0D0D"></path>
<path xmlns="http://www.w3.org/2000/svg" d="M10.2301 3.2156C10.98 1.79093 13.02 1.79092 13.7698 3.2156L22.1135 19.0685C22.8144 20.4003 21.8486 22 20.3436 22H3.65635C2.15133 22 1.18556 20.4003 1.88651 19.0685L10.2301 3.2156ZM20.3436 20L12 4.1471L3.65635 20L20.3436 20Z" fill="#0D0D0D"></path>
</svg>
